Obsidian-SemiLight/actions/24s/run-build-file.svg

<svg viewBox="0 0 24 24" xmlns="http://www.w3.org/2000/svg"><path d="m12 4c-.67521.004-1.34721.092995-2 .265625v1.0332031.0117188a7 7 0 0 0 -1.3164062.5449219l-.0078126-.0078126-.7324218-.7324218c-1.16695.68805-2.140075 1.661175-2.828125 2.828125l.5214844.5214844.21875.21875a7 7 0 0 0 -.546875 1.3164062h-.0136719-1.0351563c-.1706199.65304-.2578956 1.32505-.2597656 2 .004.67521.093005 1.34721.265625 2h1.0332031.0117188a7 7 0 0 0 .5449219 1.316406l-.21875.21875-.5214844.521485c.68805 1.16696 1.661165 2.140075 2.828125 2.828125l.5214844-.521485.21875-.21875a7 7 0 0 0 1.3164062.546875v.308594.740234c.65304.17062 1.32504.257896 2 .259766.335-.002.66853-.026613 1-.070312v-1.00586c-.33045.0488-.66509.074972-1 .076172-.33545-.0005-.66894-.025919-1-.074219v-.003906-.921875-.089844a6 6 0 0 1 -2.4726562-1.023437l-.0625.0625-.6503907.65039-.0039062.003907c-.5362962-.402053-1.0114394-.878676-1.4121094-1.416016l.0019531-.001953.6503906-.650391.0644532-.064453a6 6 0 0 1 -1.0292969-2.470703h-.0859375-.9199219-.0039062c-.0488-.33045-.0749719-.66509-.0761719-1 .0005-.33545.0259187-.66894.0742188-1h.0039062.921875.0898438a6 6 0 0 1 1.0234374-2.4726562l-.0625-.0625-.6503906-.6503907-.0039062-.0039062c.4020738-.5362962.8786756-1.0114394 1.4160156-1.4121094l.0019531.0019531.6503907.6503906.0644531.0644532a6 6 0 0 1 2.4707031-1.0292969v-.0859375-.9199219-.0039062c.33044-.0488.66509-.0749719 1-.0761719.33545.0005.66894.0259187 1 .0742188v.0039062.921875.0898438a6 6 0 0 1 2.472656 1.0234374l.0625-.0625.650391-.6503906.003906-.0039062c.53631.40206 1.01143.8786756 1.412109 1.4160156l-.001953.0019531-.65039.6503907-.064453.0644531a6 6 0 0 1 1.029296 2.4707031h.085938.919922.003906c.0488.33045.074972.66509.076172 1-.00049.33545-.025919.66894-.074219 1h1.007813c.042732-.331464.065478-.665125.066406-1-.004-.6752-.092995-1.34721-.265625-2h-.734375-.310547a7 7 0 0 0 -.544922-1.3164062l.007813-.0078126.732422-.7324218c-.68803-1.16696-1.661165-2.140075-2.828125-2.828125l-.728516.7285156-.011719.0117188a7 7 0 0 0 -1.316406-.546875v-.0136719-1.0351563c-.65304-.1706199-1.32504-.2578956-2-.2597656zm-2 5v6l5-3zm4 5v1 4 1h4v-.007812l.007812.007812 1-1h-.007812v-.59375-3.40625-1h-.308594-1.052734zm1 1h2.179688.820312v3h-1v1h-2z" fill="#4d4d4d"/></svg>

<svg xmlns="http://www.w3.org/2000/svg" viewBox="0 0 24 24">
  <defs id="defs3051">
    <style type="text/css" id="current-color-scheme">
      .ColorScheme-Text {
        color:#4d4d4d;
      }
      </style>
  </defs>
 <path style="fill:currentColor;fill-opacity:1;stroke:none" 
     d="M 12 4 C 11.32479 4.004 10.65279 4.092995 10 4.265625 L 10 5.2988281 L 10 5.3105469 A 7 7 0 0 0 8.6835938 5.8554688 L 8.6757812 5.8476562 L 7.9433594 5.1152344 C 6.7764094 5.8032844 5.8032844 6.7764094 5.1152344 7.9433594 L 5.6367188 8.4648438 L 5.8554688 8.6835938 A 7 7 0 0 0 5.3085938 10 L 5.2949219 10 L 4.2597656 10 C 4.0891457 10.65304 4.00187 11.32505 4 12 C 4.004 12.67521 4.093005 13.34721 4.265625 14 L 5.2988281 14 L 5.3105469 14 A 7 7 0 0 0 5.8554688 15.316406 L 5.6367188 15.535156 L 5.1152344 16.056641 C 5.8032844 17.223601 6.7763994 18.196716 7.9433594 18.884766 L 8.4648438 18.363281 L 8.6835938 18.144531 A 7 7 0 0 0 10 18.691406 L 10 19 L 10 19.740234 C 10.65304 19.910854 11.32504 19.99813 12 20 C 12.335 19.998 12.66853 19.973387 13 19.929688 L 13 18.923828 C 12.66955 18.972628 12.33491 18.9988 12 19 C 11.66455 18.9995 11.33106 18.974081 11 18.925781 L 11 18.921875 L 11 18 L 11 17.910156 A 6 6 0 0 1 8.5273438 16.886719 L 8.4648438 16.949219 L 7.8144531 17.599609 L 7.8105469 17.603516 C 7.2742507 17.201463 6.7991075 16.72484 6.3984375 16.1875 L 6.4003906 16.185547 L 7.0507812 15.535156 L 7.1152344 15.470703 A 6 6 0 0 1 6.0859375 13 L 6 13 L 5.0800781 13 L 5.0761719 13 C 5.0273719 12.66955 5.0012 12.33491 5 12 C 5.0005 11.66455 5.0259187 11.33106 5.0742188 11 L 5.078125 11 L 6 11 L 6.0898438 11 A 6 6 0 0 1 7.1132812 8.5273438 L 7.0507812 8.4648438 L 6.4003906 7.8144531 L 6.3964844 7.8105469 C 6.7985582 7.2742507 7.27516 6.7991075 7.8125 6.3984375 L 7.8144531 6.4003906 L 8.4648438 7.0507812 L 8.5292969 7.1152344 A 6 6 0 0 1 11 6.0859375 L 11 6 L 11 5.0800781 L 11 5.0761719 C 11.33044 5.0273719 11.66509 5.0012 12 5 C 12.33545 5.0005 12.66894 5.0259187 13 5.0742188 L 13 5.078125 L 13 6 L 13 6.0898438 A 6 6 0 0 1 15.472656 7.1132812 L 15.535156 7.0507812 L 16.185547 6.4003906 L 16.189453 6.3964844 C 16.725763 6.7985444 17.200883 7.27516 17.601562 7.8125 L 17.599609 7.8144531 L 16.949219 8.4648438 L 16.884766 8.5292969 A 6 6 0 0 1 17.914062 11 L 18 11 L 18.919922 11 L 18.923828 11 C 18.972628 11.33045 18.9988 11.66509 19 12 C 18.99951 12.33545 18.974081 12.66894 18.925781 13 L 19.933594 13 C 19.976326 12.668536 19.999072 12.334875 20 12 C 19.996 11.3248 19.907005 10.65279 19.734375 10 L 19 10 L 18.689453 10 A 7 7 0 0 0 18.144531 8.6835938 L 18.152344 8.6757812 L 18.884766 7.9433594 C 18.196736 6.7763994 17.223601 5.8032844 16.056641 5.1152344 L 15.328125 5.84375 L 15.316406 5.8554688 A 7 7 0 0 0 14 5.3085938 L 14 5.2949219 L 14 4.2597656 C 13.34696 4.0891457 12.67496 4.00187 12 4 z M 10 9 L 10 15 L 15 12 L 10 9 z M 14 14 L 14 15 L 14 19 L 14 20 L 18 20 L 18 19.992188 L 18.007812 20 L 19.007812 19 L 19 19 L 19 18.40625 L 19 15 L 19 14 L 18.691406 14 L 17.638672 14 L 14 14 z M 15 15 L 17.179688 15 L 18 15 L 18 18 L 17 18 L 17 19 L 15 19 L 15 15 z "
     class="ColorScheme-Text"
     />
</svg>
